X:17050
T:The New Road
S:Tommy Peoples, Donegal (fiddle)
D:Demo tape - 197
R:Reel
Z:Bernie Stocks
N:As played
M:4/4
K:G
DFEF D2(3.d.d.B | {cd}cAGE ~E2GE | DFEF D2dB | {cd}cAGE AD(3.D.D.D |
DFEF D2(3.d.d.B | {cd}cAGE ~E2Gc | Ad~d2 dfed | {cd}cAGE ADD2 ||
{afe}f2fe fa{a}ge | fdge afde | ~f3e fage | ~f2ed Adde |
f3d3e fage | fdge afge | fage dfed | {e}dcAG EFGE ||
